workspaces/osm/styles/symbols/prison.svg

<?xml version="1.0" encoding="UTF-8" standalone="no"?>
<!-- Created with Inkscape (http://www.inkscape.org/) -->

<svg
   xmlns="http://www.w3.org/2000/svg"
   version="1.1"
   width="14"
   height="14"
   viewBox="0 0 14 14">
  <rect
     width="14"
     height="14"
     x="0"
     y="0"
     id="canvas"
     style="fill:none;stroke:none;visibility:hidden" />
  <path
     d="M 0,0 0,14 14,14 14,0 0,0 z m 1,1 3,0 0,12 -0.5,0 0,-4.21875 C 3.200928,9.13501 3,9.5625 3,10 L 3,13 1,13 1,1 z m 4,0 4,0 0,12 -0.5,0 0,-5 -3,0 0,5 L 5,13 5,1 z m 5,0 3,0 0,12 -2,0 0,-3 C 11,9.5625 10.799072,9.13501 10.5,8.78125 L 10.5,13 10,13 10,1 z M 7,3 C 6.399152,3 5.866615,3.2680514 5.5,3.6875 l 0,2.625 C 5.866615,6.7319486 6.399152,7 7,7 7.600847,7 8.133385,6.7319486 8.5,6.3125 l 0,-2.625 C 8.133385,3.2680514 7.600847,3 7,3 z"
     id="prison" />
</svg>

<svg width="14" height="14" version="1.1" viewBox="0 0 14 14" xmlns="http://www.w3.org/2000/svg"><rect id="a" width="14" height="14" fill="none" visibility="hidden"/><path id="b" d="m0 0v14h14v-14h-14zm1 1h3v12h-0.5v-4.2188c-0.34607 0.39179-0.54222 0.91231-0.5 1.4365v2.7822h-2v-12zm4 0h4v12h-0.5v-5h-3v5h-0.5v-12zm5 0h3v12h-2c-0.0034-1.0409 0.0068-2.0821-0.0052-3.1227-0.035266-0.40829-0.23349-0.7867-0.4948-1.096v4.2188h-0.5v-12zm-3 2c-0.56918-0.00449-1.1292 0.25744-1.5 0.6875v2.625c0.59975 0.72077 1.7294 0.9052 2.5227 0.40186 0.17497-0.14723 0.50615-0.27273 0.47729-0.54045v-2.4864c-0.37173-0.43046-0.92977-0.69167-1.5-0.6875z"/></svg>
